extensions/images/svgs/logo.svg

<svg fill="none" height="41" viewBox="0 0 51 41" width="51" xmlns="http://www.w3.org/2000/svg" xmlns:xlink="http://www.w3.org/1999/xlink"><linearGradient id="a" gradientUnits="userSpaceOnUse" x1="25.1945" x2="29.2512" y1="21.4729" y2="37.2833"><stop offset="0"/><stop offset="1"/></linearGradient><path d="m22.8637 36.9661c-1.5377-3.8439-4.3289-7.2186-8.1924-9.4492-4.6249-2.6703-9.90138-3.1898-14.6713-1.869 1.24109 4.7913 4.32926 9.1011 8.95422 11.7713 2.07588 1.1986 4.28308 1.9638 6.51688 2.3238.5236-.0417 1.0696-.0957 1.6417-.1604 2.2421-.2539 4.3-1.2032 5.7509-2.6165z" fill="#6edfa3" opacity=".9"/><path d="m32.3113 32.6739c-.2894-.434-.5545-.8327-.8036-1.2075 1.3441-1.5322 2.9578-2.874 4.821-3.9497 4.625-2.6702 9.9014-3.1897 14.6713-1.8689-1.2411 4.7913-4.3292 9.101-8.9542 11.7712-2.3002 1.3281-4.7615 2.1241-7.2416 2.4264-.0756-2.5164-1.2959-5.3759-2.4929-7.1715z" fill="#943dff" opacity=".9"/><path d="m22.652 25.3586c-.9355-1.5688-2.0785-3.0483-3.4291-4.3988-4.4429-4.4429-10.28118-6.6401-16.10419-6.5916-.04855 5.823 2.14864 11.6613 6.59157 16.1042 3.70732 3.7073 8.38622 5.851 13.21702 6.431 1.5033-1.4969 2.3318-3.5007 1.9973-5.744-.3126-2.0957-1.1202-3.6186-1.8709-5.0342-.1369-.2581-.2719-.5127-.4017-.7666z" fill="#2ae6da" opacity=".9"/><path d="m31.145 30.9204c-1.0368-1.5611-1.839-2.7689-3.1028-4.6096 1.0162-1.8897 2.3219-3.6647 3.9171-5.2599 4.443-4.443 10.2812-6.6402 16.1042-6.5916.0486 5.823-2.1486 11.6613-6.5915 16.1042-2.2521 2.2521-4.8626 3.9271-7.6479 5.0252-.4397-1.1002-.9786-2.1134-1.5128-2.9148-.434-.651-.8135-1.2224-1.1659-1.753l-.0002-.0003z" fill="#6047fc" opacity=".9"/><path d="m28.9112 27.5836c-.2826-.4164-.5851-.8594-.92-1.3469-1.7618-2.5648-2.4564-4.5304-1.8561-5.4879.2236-.3568.5451-.6704.945-.9053 1.055 2.5123 1.6562 5.1266 1.8311 7.7401zm-4.3681 6.9161c.4079-1.0186.5596-2.1454.3814-3.3402-.3125-2.0957-1.1201-3.6187-1.8708-5.0342-.6904-1.3018-1.3326-2.5129-1.4973-3.9951-.3438-3.094 1.1804-4.6673 3.6382-4.926.1948-.0205.3873-.0248.5766-.015-.0217-.0382-.0436-.0762-.0656-.1143-.1878-.3254-.382-.6448-.5824-.9581-.0028.0035-.0056.007-.0084.0105-.1271-.1583-.239-.336-.3328-.5294-3.4176-5.0574-8.4679-8.45663-14.0288-9.89709-1.67775 6.05899-1.01779 12.76139 2.374 18.63619 2.7193 4.71 6.7773 8.1652 11.4159 10.1627zm-.2419-18.1231c.0435-.7088-.1331-1.4581-.5392-2.0759-.4062-.6177-.964-.9857-1.5354-1.0797-.0434.7088.1332 1.4581.5393 2.0758.4061.6178.964.9858 1.5353 1.0798zm.764 3.2853c.3572 0 .6468-.2896.6468-.6468s-.2896-.6468-.6468-.6468-.6468.2896-.6468.6468.2896.6468.6468.6468z" fill="#1adffe" opacity=".9"/><path d="m24.103 35.3957c-.3671.1138-.7367.2189-1.1087.3153-.9554-3.4504-1.1528-7.1094-.5192-10.7054.1818.3714.3781.7417.5785 1.1196.7507 1.4156 1.5584 2.9385 1.8709 5.0342.2322 1.5574-.096 2.9993-.8215 4.2363zm7.4708-3.8298c-.1481-.2228-.2904-.4371-.4285-.645l-.0002-.0003-.0002-.0002c-1.0506-1.582-1.8604-2.8012-3.1537-4.6838-1.7618-2.5648-2.4564-4.5304-1.8561-5.4879.6002-.9575 1.9052-1.6043 3.5414-1.2533-.5663-.8495-2.3307-2.4563-4.3769-2.3008.0228-.04.0457-.0799.0687-.1198.1634-.283.3316-.5614.5045-.8353-.0018.093.0001.1857.0058.2777.5713-.094 1.1292-.462 1.5353-1.0798.3965-.6031.5742-1.3316.542-2.0254 3.2974-3.85772 7.6474-6.48934 12.3649-7.71132 1.6777 6.05902 1.0178 12.76142-2.374 18.63622-1.6754 2.9017-3.8588 5.3272-6.373 7.229zm-7.131-12.7274c.0313-.066.0629-.1319.0948-.1978.1173-.1649.3099-.2725.5276-.2725.3572 0 .6468.2896.6468.6468s-.2896.6468-.6468.6468-.6468-.2896-.6468-.6468c0-.0612.0085-.1204.0244-.1765z" fill="#416afc" opacity=".9"/><path d="m23.4827 36.2892c1.1452-1.4121 1.7326-3.1805 1.4419-5.1297-.3125-2.0957-1.1201-3.6187-1.8708-5.0342-.6904-1.3019-1.3326-2.5129-1.4973-3.9951-.3438-3.094 1.1804-4.6673 3.6382-4.926 2.0906-.2201 3.9059 1.4273 4.4819 2.2913-1.6361-.351-2.9411.2958-3.5414 1.2532-.6003.9575.0943 2.9232 1.8561 5.4879 1.2417 1.8076 2.0377 3.0036 3.0292 4.4962 1.638-3.4834 2.5536-7.3738 2.5536-11.478 0-7.5387-3.089-14.35583-8.0704-19.2548-4.9813 4.89897-8.0704 11.7161-8.0704 19.2548 0 6.4585 2.2673 12.3875 6.0494 17.0344zm2.2887-22.1459c0 .7768-.2513 1.4792-.6565 1.984-.4052-.5048-.6564-1.2072-.6564-1.984s.2512-1.4792.6564-1.984c.4052.5048.6565 1.2072.6565 1.984zm-1.4701 2.2333c.0435-.7089-.1331-1.4581-.5392-2.0759-.4062-.6177-.964-.9857-1.5353-1.0797-.0435.7088.1331 1.4581.5392 2.0758.4061.6178.964.9858 1.5353 1.0798zm3.652-3.015c.0435.7088-.1332 1.4581-.5393 2.0758-.4061.6178-.964.9858-1.5353 1.0798-.0435-.7088.1331-1.4581.5392-2.0758.4062-.6178.964-.9858 1.5354-1.0798zm-2.888 6.3002c.3572 0 .6468-.2895.6468-.6467s-.2896-.6468-.6468-.6468-.6467.2896-.6467.6468.2895.6467.6467.6467z" fill="#2292f9" opacity=".9"/><path d="m26.1021 20.8066c-1.1642 1.811-.3255 3.9001 1.4208 7.3927 1.6816 3.3632 2.7339 6.6193 1.6816 9.3135-.4594 1.1763-1.2467 2.1885-2.6525 2.9758.0849.0116.1737.0223.2662.032 3.1791-.0392 6.0785-.2749 7.9939-.6494-.4009-3.5017-1.1076-4.8533-3.1499-8.1793-.5938-.9671-1.3155-1.9972-2.043-3.0355-2.0886-2.9807-4.2246-6.0291-3.5171-7.8498z" fill="url(#a)"/></svg>

<svg width="51" height="41" viewBox="0 0 51 41" fill="none" xmlns="http://www.w3.org/2000/svg">
    <path opacity="0.9" fillRule="evenodd" clipRule="evenodd"
        d="M22.8637 36.9661C21.326 33.1222 18.5348 29.7475 14.6713 27.5169C10.0464 24.8466 4.76992 24.3271 0 25.6479C1.24109 30.4392 4.32926 34.749 8.95422 37.4192C11.0301 38.6178 13.2373 39.383 15.4711 39.743C15.9947 39.7013 16.5407 39.6473 17.1128 39.5826C19.3549 39.3287 21.4128 38.3794 22.8637 36.9661Z"
        fill="#6EDFA3" />
    <path opacity="0.9" fillRule="evenodd" clipRule="evenodd"
        d="M32.3113 32.6739C32.0219 32.2399 31.7568 31.8412 31.5077 31.4664C32.8518 29.9342 34.4655 28.5924 36.3287 27.5167C40.9537 24.8465 46.2301 24.327 51 25.6478C49.7589 30.4391 46.6708 34.7488 42.0458 37.419C39.7456 38.7471 37.2843 39.5431 34.8042 39.8454C34.7286 37.329 33.5083 34.4695 32.3113 32.6739Z"
        fill="#943DFF" />
    <path opacity="0.9" fillRule="evenodd" clipRule="evenodd"
        d="M22.652 25.3586C21.7165 23.7898 20.5735 22.3103 19.2229 20.9598C14.78 16.5169 8.94172 14.3197 3.11871 14.3682C3.07016 20.1912 5.26735 26.0295 9.71028 30.4724C13.4176 34.1797 18.0965 36.3234 22.9273 36.9034C24.4306 35.4065 25.2591 33.4027 24.9246 31.1594C24.612 29.0637 23.8044 27.5408 23.0537 26.1252C22.9168 25.8671 22.7818 25.6125 22.652 25.3586Z"
        fill="#2AE6DA" />
    <path opacity="0.9" fillRule="evenodd" clipRule="evenodd"
        d="M31.145 30.9204C30.1082 29.3593 29.306 28.1515 28.0422 26.3108C29.0584 24.4211 30.3641 22.6461 31.9593 21.0509C36.4023 16.6079 42.2405 14.4107 48.0635 14.4593C48.1121 20.2823 45.9149 26.1206 41.472 30.5635C39.2199 32.8156 36.6094 34.4906 33.8241 35.5887C33.3844 34.4885 32.8455 33.4753 32.3113 32.6739C31.8773 32.0229 31.4978 31.4515 31.1454 30.9209L31.1452 30.9206L31.145 30.9204Z"
        fill="#6047FC" />
    <path opacity="0.9" fillRule="evenodd" clipRule="evenodd"
        d="M28.9112 27.5836C28.6286 27.1672 28.3261 26.7242 27.9912 26.2367C26.2294 23.6719 25.5348 21.7063 26.1351 20.7488C26.3587 20.392 26.6802 20.0784 27.0801 19.8435C28.1351 22.3558 28.7363 24.9701 28.9112 27.5836ZM24.5431 34.4997C24.951 33.4811 25.1027 32.3543 24.9245 31.1595C24.612 29.0638 23.8044 27.5408 23.0537 26.1253C22.3633 24.8235 21.7211 23.6124 21.5564 22.1302C21.2126 19.0362 22.7368 17.4629 25.1946 17.2042C25.3894 17.1837 25.5819 17.1794 25.7712 17.1892C25.7495 17.151 25.7276 17.113 25.7056 17.0749C25.5178 16.7495 25.3236 16.4301 25.1232 16.1168C25.1204 16.1203 25.1176 16.1238 25.1148 16.1273C24.9877 15.969 24.8758 15.7913 24.782 15.5979C21.3644 10.5405 16.3141 7.14127 10.7532 5.70081C9.07545 11.7598 9.73541 18.4622 13.1272 24.337C15.8465 29.047 19.9045 32.5022 24.5431 34.4997ZM24.3012 16.3766C24.3447 15.6678 24.1681 14.9185 23.762 14.3007C23.3558 13.683 22.798 13.315 22.2266 13.221C22.1832 13.9298 22.3598 14.6791 22.7659 15.2968C23.172 15.9146 23.7299 16.2826 24.3012 16.3766ZM25.0652 19.6619C25.4224 19.6619 25.712 19.3723 25.712 19.0151C25.712 18.6579 25.4224 18.3683 25.0652 18.3683C24.708 18.3683 24.4184 18.6579 24.4184 19.0151C24.4184 19.3723 24.708 19.6619 25.0652 19.6619Z"
        fill="#1ADFFE" />
    <path opacity="0.9" fillRule="evenodd" clipRule="evenodd"
        d="M24.103 35.3957C23.7359 35.5095 23.3663 35.6146 22.9943 35.711C22.0389 32.2606 21.8415 28.6016 22.4751 25.0056C22.6569 25.377 22.8532 25.7473 23.0536 26.1252C23.8043 27.5408 24.612 29.0637 24.9245 31.1594C25.1567 32.7168 24.8285 34.1587 24.103 35.3957ZM31.5738 31.5659C31.4257 31.3431 31.2834 31.1288 31.1453 30.9209L31.1451 30.9206L31.1449 30.9204C30.0943 29.3384 29.2845 28.1192 27.9912 26.2366C26.2294 23.6718 25.5348 21.7062 26.1351 20.7487C26.7353 19.7912 28.0403 19.1444 29.6765 19.4954C29.1102 18.6459 27.3458 17.0391 25.2996 17.1946C25.3224 17.1546 25.3453 17.1147 25.3683 17.0748C25.5317 16.7918 25.6999 16.5134 25.8728 16.2395C25.871 16.3325 25.8729 16.4252 25.8786 16.5172C26.4499 16.4232 27.0078 16.0552 27.4139 15.4374C27.8104 14.8343 27.9881 14.1058 27.9559 13.412C31.2533 9.55428 35.6033 6.92266 40.3208 5.70068C41.9985 11.7597 41.3386 18.4621 37.9468 24.3369C36.2714 27.2386 34.088 29.6641 31.5738 31.5659ZM24.4428 18.8385C24.4741 18.7725 24.5057 18.7066 24.5376 18.6407C24.6549 18.4758 24.8475 18.3682 25.0652 18.3682C25.4224 18.3682 25.712 18.6578 25.712 19.015C25.712 19.3722 25.4224 19.6618 25.0652 19.6618C24.708 19.6618 24.4184 19.3722 24.4184 19.015C24.4184 18.9538 24.4269 18.8946 24.4428 18.8385Z"
        fill="#416AFC" />
    <path opacity="0.9" fillRule="evenodd" clipRule="evenodd"
        d="M23.4827 36.2892C24.6279 34.8771 25.2153 33.1087 24.9246 31.1595C24.6121 29.0638 23.8045 27.5408 23.0538 26.1253C22.3634 24.8234 21.7212 23.6124 21.5565 22.1302C21.2127 19.0362 22.7369 17.4629 25.1947 17.2042C27.2853 16.9841 29.1006 18.6315 29.6766 19.4955C28.0405 19.1445 26.7355 19.7913 26.1352 20.7487C25.5349 21.7062 26.2295 23.6719 27.9913 26.2366C29.233 28.0442 30.029 29.2402 31.0205 30.7328C32.6585 27.2494 33.5741 23.359 33.5741 19.2548C33.5741 11.7161 30.4851 4.89897 25.5037 0C20.5224 4.89897 17.4333 11.7161 17.4333 19.2548C17.4333 25.7133 19.7006 31.6423 23.4827 36.2892ZM25.7714 14.1433C25.7714 14.9201 25.5201 15.6225 25.1149 16.1273C24.7097 15.6225 24.4585 14.9201 24.4585 14.1433C24.4585 13.3665 24.7097 12.6641 25.1149 12.1593C25.5201 12.6641 25.7714 13.3665 25.7714 14.1433ZM24.3013 16.3766C24.3448 15.6677 24.1682 14.9185 23.7621 14.3007C23.3559 13.683 22.7981 13.315 22.2268 13.221C22.1833 13.9298 22.3599 14.6791 22.766 15.2968C23.1721 15.9146 23.73 16.2826 24.3013 16.3766ZM27.9533 13.3616C27.9968 14.0704 27.8201 14.8197 27.414 15.4374C27.0079 16.0552 26.45 16.4232 25.8787 16.5172C25.8352 15.8084 26.0118 15.0591 26.4179 14.4414C26.8241 13.8236 27.3819 13.4556 27.9533 13.3616ZM25.0653 19.6618C25.4225 19.6618 25.7121 19.3723 25.7121 19.0151C25.7121 18.6579 25.4225 18.3683 25.0653 18.3683C24.7081 18.3683 24.4186 18.6579 24.4186 19.0151C24.4186 19.3723 24.7081 19.6618 25.0653 19.6618Z"
        fill="#2292F9" />
    <path fillRule="evenodd" clipRule="evenodd"
        d="M26.1021 20.8066C24.9379 22.6176 25.7766 24.7067 27.5229 28.1993C29.2045 31.5625 30.2568 34.8186 29.2045 37.5128C28.7451 38.6891 27.9578 39.7013 26.552 40.4886C26.6369 40.5002 26.7257 40.5109 26.8182 40.5206C29.9973 40.4814 32.8967 40.2457 34.8121 39.8712C34.4112 36.3695 33.7045 35.0179 31.6622 31.6919C31.0684 30.7248 30.3467 29.6947 29.6192 28.6564C27.5306 25.6757 25.3946 22.6273 26.1021 20.8066Z"
        fill="url(#paint0_linear_573_216)" />
    <defs>
        <linearGradient id="paint0_linear_573_216" x1="25.1945" y1="21.4729" x2="29.2512" y2="37.2833"
            gradientUnits="userSpaceOnUse">
            <stop stopColor="#CECECE" />
            <stop offset="1" stopColor="white" stopOpacity="0" />
        </linearGradient>
    </defs>
</svg>
